X: 32125
T: Peter Byrne's
R: jig
M: 6/8
K: Emixolydian
|:BGE d2B|cBA B2E|BGE d2B|cAF FEE|
BGE d2B|cBA B2E|def edB|AFB E3:|
|:def edB|BAF d2B|def edB|BAF FEE|
def edB|BAF d2f|gfe d2B|cAF E3:|

